X:0441
T:The Prince of Tunis.
M:C
L:1/8
Q:1/4=80 "Slow"
N:last note is G2 in the book
I: :: ::
Z:Jack Campin * www.campin.me.uk * 2009
K:G
D|G3 A B>AB>d|e2 A2     A3  B |G3  A B>AB>d|e3 f g>ab>a|
  g2e2 e>gf>e|d<BA>B    e3  g |d3  B c<BA>G|E2G2 G3   ::
d|g3 a b<ag>f|e2(fg) {e}d2 cB |e3  g d<BA>G|E2A2 A>cB>A|
  G3 A B>AB>d|e3  f  {a}g2(fe)|d>edB c>BA>G|E2G2 G3   :|

